src/shared/assets/character/main/character-music.svg

<svg width="16" height="16" viewBox="0 0 16 16" fill="none" xmlns="http://www.w3.org/2000/svg">
<g clip-path="url(#clip0_983_15350)">
<path opacity="0.99" d="M1.43292 13.5944C1.52341 13.8288 1.67334 14.0376 1.87415 14.2089C2.07496 14.3802 2.32271 14.5106 2.60327 14.5928C2.88382 14.6749 3.19169 14.7072 3.50928 14.6876C3.82687 14.6681 4.14796 14.5972 4.45424 14.4789C4.76051 14.3607 5.04597 14.1975 5.2943 13.9985C5.54263 13.7996 5.74898 13.5688 5.90156 13.3195C6.05414 13.0701 6.14997 12.807 6.18357 12.5452C6.21718 12.2834 6.1879 12.028 6.09741 11.7936C5.91465 11.3202 5.49367 10.9611 4.92706 10.7952C4.36045 10.6293 3.69464 10.6703 3.07609 10.9091C2.45754 11.1478 1.93692 11.5649 1.62877 12.0685C1.32062 12.5721 1.25017 13.121 1.43292 13.5944Z" fill="white"/>
<path opacity="0.99" d="M8.63314 12.0946C8.72362 12.329 8.87354 12.5378 9.07435 12.7092C9.27516 12.8805 9.52291 13.0109 9.80347 13.0931C10.084 13.1752 10.3919 13.2075 10.7095 13.1879C11.0271 13.1684 11.3482 13.0975 11.6545 12.9793C11.9608 12.861 12.2462 12.6978 12.4946 12.4988C12.7429 12.2999 12.9492 12.0691 13.1018 11.8198C13.2544 11.5704 13.3502 11.3073 13.3838 11.0455C13.4174 10.7837 13.3881 10.5283 13.2976 10.2939C13.2071 10.0595 13.0572 9.85064 12.8564 9.67932C12.6556 9.508 12.4079 9.37754 12.1273 9.29539C11.8467 9.21324 11.5389 9.18102 11.2213 9.20055C10.9037 9.22008 10.5826 9.29099 10.2763 9.40923C9.97 9.52747 9.68454 9.69072 9.43621 9.88967C9.18787 10.0886 8.98152 10.3194 8.82894 10.5687C8.67636 10.8181 8.58054 11.0812 8.54694 11.343C8.51334 11.6048 8.54264 11.8602 8.63314 12.0946Z" fill="white"/>
<g filter="url(#filter0_d_983_15350)">
<path d="M11.6442 1.53991L6.09086 3.30658C5.81312 3.39039 5.56976 3.56144 5.39685 3.79439C5.22394 4.02735 5.13067 4.3098 5.13086 4.59991V12.3466H6.19753V6.06658C6.19753 5.93991 6.27753 5.82658 6.40419 5.79325L11.9642 4.01991C11.9909 4.01325 12.0175 4.00658 12.0442 4.00658C12.1842 4.00658 12.3309 4.11991 12.3309 4.29325V10.8266H13.3975V2.82658C13.3975 1.91991 12.5175 1.27325 11.6442 1.53991Z" fill="white"/>
</g>
</g>
<defs>
<filter id="filter0_d_983_15350" x="-14.8691" y="-18.5207" width="48.2666" height="50.8672" filterUnits="userSpaceOnUse" color-interpolation-filters="sRGB">
<feFlood flood-opacity="0" result="BackgroundImageFix"/>
<feColorMatrix in="SourceAlpha" type="matrix" values="0 0 0 0 0 0 0 0 0 0 0 0 0 0 0 0 0 0 127 0" result="hardAlpha"/>
<feOffset/>
<feGaussianBlur stdDeviation="10"/>
<feComposite in2="hardAlpha" operator="out"/>
<feColorMatrix type="matrix" values="0 0 0 0 0 0 0 0 0 0 0 0 0 0 0 0 0 0 0.3 0"/>
<feBlend mode="normal" in2="BackgroundImageFix" result="effect1_dropShadow_983_15350"/>
<feBlend mode="normal" in="SourceGraphic" in2="effect1_dropShadow_983_15350" result="shape"/>
</filter>
<clipPath id="clip0_983_15350">
<rect width="16" height="16" fill="white"/>
</clipPath>
</defs>
</svg>

<svg xmlns="http://www.w3.org/2000/svg" fill="none" viewBox="0 0 16 16"><g clip-path="url(#a)"><path fill="#fff" d="M1.433 13.594c.09.235.24.444.441.615s.449.302.73.384.588.114.905.095.639-.09.945-.21c.307-.117.592-.28.84-.48.249-.198.455-.43.608-.678.152-.25.248-.513.282-.775a1.5 1.5 0 0 0-.087-.751c-.182-.474-.603-.833-1.17-.999s-1.232-.125-1.85.114c-.62.239-1.14.656-1.448 1.16s-.379 1.052-.196 1.525m7.2-1.499c.09.234.24.443.441.614.201.172.449.302.73.384s.588.114.906.095c.317-.02.638-.09.944-.209.307-.118.592-.281.84-.48.249-.2.455-.43.608-.68a2 2 0 0 0 .282-.774 1.5 1.5 0 0 0-.086-.751 1.5 1.5 0 0 0-.442-.615 2 2 0 0 0-.729-.384 2.7 2.7 0 0 0-.906-.094c-.317.02-.638.09-.945.208a3.2 3.2 0 0 0-.84.48c-.248.2-.454.43-.607.68s-.248.512-.282.774-.004.517.086.752" opacity=".99"/><g filter="url(#b)"><path fill="#fff" d="M11.644 1.54 6.091 3.307A1.35 1.35 0 0 0 5.13 4.6v7.747h1.067v-6.28c0-.127.08-.24.206-.274l5.56-1.773q.04-.012.08-.013c.14 0 .287.113.287.286v6.534h1.067v-8c0-.907-.88-1.554-1.754-1.287"/></g></g><defs><clipPath id="a"><path fill="#fff" d="M0 0h16v16H0z"/></clipPath><filter id="b" width="48.267" height="50.867" x="-14.869" y="-18.521" color-interpolation-filters="sRGB" filterUnits="userSpaceOnUse"><feFlood flood-opacity="0" result="BackgroundImageFix"/><feColorMatrix in="SourceAlpha" result="hardAlpha" values="0 0 0 0 0 0 0 0 0 0 0 0 0 0 0 0 0 0 127 0"/><feOffset/><feGaussianBlur stdDeviation="10"/><feComposite in2="hardAlpha" operator="out"/><feColorMatrix values="0 0 0 0 0 0 0 0 0 0 0 0 0 0 0 0 0 0 0.3 0"/><feBlend in2="BackgroundImageFix" result="effect1_dropShadow_983_15350"/><feBlend in="SourceGraphic" in2="effect1_dropShadow_983_15350" result="shape"/></filter></defs></svg>
